X:1
T:Sonata 1, Adagio
C:J. S. Bach
M:4/4
K:C
L:1/16
 [G,4D4_B4g4]z/2f/2_e/2d/2c/2_B/2A/2_B/4G/4 [A,2G2c2]^F2-^F/2E/2D/2E/2^F/2G/2A/2c/4_B/4 | 
 [D2c2^f2]z/2d/4c/4_B/2c/2 c3/2_B/4c/4d1A1 [G,2D2_B2g2]z/2G/2A/4_B/4c/4d/4 _e2[G2_B2] | 
 [F1_B1]A1_e1d1 d2[D1d1_b1]^f1 [_E3/2d3/2g3/2]_e/2d/2c/2_B/2c/4A/4 _B/2^F/2G/2D/2_E/2d/4c/4_B/4c/4c/4 | 
 [D2d2g2]^f2 a2[D2c2] [G,1D1_B1]d1^f1a1 g2[G,2F2_B2] |  [^C1E1A1]_b/2a/4g/4f3/2e/2 f2[D2A2] [G1_B1f1]d1_e2 _b1g1[_B1g1][G1_e1] | 
 [G1_e1]_d1a2 F3/2a/2g/2f/2e/2d/2 E1d1g1e1 d1^c1A1g1 |  D1g1f1g/2e/2 f2[C2A2] [_B,1A1]D1G1f1 e2-e/4f/4g/4a/4_b/4e/4f/4g/4 | 
 [A,2G2d2]^c2 G/2F1G/4E/4F1d1 [A,/2E/2d/2]-[A,/4E/4d/4]^c/4B/2^c/2d/2e/2f/2g/4e/4 ^c3d1 | 
 [D4d4]-[D/2d/2]d/2c/2_B/2A/4_B/4A/4_B/4_B/2A/4_B/4 [A,1^F1c1]_e/2d/2_e2 _g/2_e/2d/2c/2_B1c/2A/2 | 
 [G,/2D/2A/2g/2]_B2G/2_B/2d/2 g/2f/2_e/2d/2c/2_B/2A/4G/4^F/4G/4 [D2G2A2]^F2 [G,3/2F3/2B3/2]G/4_A/4G/2F/2_E/2F/4D/4 | 
 [C1D1B1]d1[_E1d1]c1 [F1_e1]d1[G1d1]_e1 [^G,3/2F3/2d3/2]_B/2c/2d/2_e/2f/4g/4 _a1_B1D1_a1 | 
 _E1_a1g2 ^c2_E/2G/2_B/2_d/2 _A,1c1[F1c1_a1]g/2f/2 [_B,2F2_e2]d3/2_e/2 | 
 [A,4^F4_e4] B,/2D/2F/2^G/2B/2d/2f/2_a/4g/4 [_E3/2c3/2g3/2]_a/4g/4^f/4g/4d/4_e/4B/4c/4^F/2 G/2_e1d1c/4B/4c1 | 
 c3/2_B/4_A/4G/2F/2_E/2D/2 C/2B,/2C/2G,/2C/2_E/2G/2c/2 D1c/2f/2B2-B/2A/2G/2A/2B/2c/2d/2f/4_e/4 | 
 [G,4D4B4f4]-[G,/2D/2B/2f/2]_a/2g/2f/2g/2f/2_e/2d/2 [C2G2_e2]z/2c/2d/4_e/4f/4g/4 _a2[C2^G2_e2] | 
 [_B,1F1_e1]d1_a1g1 g2[G,1G1_e1g1]B1 [^G,3/2_E3/2c3/2g3/2]_B/2^G/2G/2_A/2c/2 f/2g/2_e/2f/2f3/2_e/4f/4 | 
 [G,2D2c2g2]B2 [d2f2][B,2G2d2f2] [C/2G/2]B/2d/2f/2_a1g1 _e2[C2G2_e2g2] | 
 [^F3/2_e3/2a3/2]d/2c/2d/2c/4_B/4c/4A/4 _B1-_B/4A/4G/4^F/4G/2D/2_B,/2G,/2 C/2_E/2_B/2G/2_A2 _e1c1[c1^g1][A1^f1] | 
 [D/2A/2^f/2]g/2a/2^f/2d2 _B,3/2d/2c/2_B/2A/2_B/4G/4 A,1G1c1A1 G1^F1D1c1 | 
 G,3/2c/2_B1c/2A/2 _B3/2G,/2A,1C/2_B,/2 C1D1_E1G1 _A1B1c1_e1 | 
 [C2D2A2g2]^f2 _b1-_b/4a/4g/4^f/4[^C2E2A2g2] [D3/2A3/2g3/2]_B/2c/2d/2e/2^f/2 g/4a/4_b/4a/4_b/4g/4^g/4g1^f/2-^f/4g/4 |  [G,16D16_B16g16] |] 
